X:197
T:Tennessee Waltz
M:3/4
L:1/8
C:North American
K:D
DE|"D"F2 A2 DE|F2 A2 de|f2 a2 fe|"G"d2 (B2 Bc)|
"D"d2 A2 F2|B2 A2 F2|"A"E4 EF|E4 DE|
"D"F2 A2 DE|F2 A2 de|f2 a2 fe|"G"d2 (B2Bc)|
"D"d2 A2 F2|"A"G2 F2 E2|"D"D4 DE|D4 de||
"D"f2 a2 f2|e4 ff|"G"e2 d2 B2|"D"A4 Bc|
"D"d2 A2 F2|B2 A2 F2|"A"E4 EF|E4 DE|
"D"F2 A2 DE|F2 A2 de|f2 a2 fe|"G"d2 (B2 Bc)|
"D"d2 A2 F2|"A"G2 F2 E2|"D"D4 DE|"D"D4||
